X:1
T:The Father’s Care
T:The Father’s Care
T:S. B. Jackson
T:P. B. Sabin, 1897
T:Public Domain Courtesy of the Cyber Hymnal™
T:Public Domain Courtesy of the Cyber Hymnal™
C:S. B. Jackson
Z:Public Domain
Z:Courtesy of the Cyber Hymnal™
%%score ( 1 2 ) ( 3 4 )
L:1/8
Q:1/4=82
M:4/4
K:C
V:1 treble 
V:2 treble 
V:3 bass 
V:4 bass 
V:1
 [EG] | [EG][CE][EA][EG] [Fc][FB][FB][FA] | [Ac][GB][GB][DF] ([^DA]2 [EG])[EG] | %3
w: 1.~’Neath|threat- ening clouds a lit- tle bird Flew|home- ward to its rest; * And|
w: 2.~So|white the snow on val- ley’s breast, So|bare the old oak tree; * The|
w: 3.~O|heart op- pressed with life’s sad woe, Doubt|not thy Fa- ther’s care. * No|
 [EG][CE][EA][EG] [Ec][DB][GB][Ac] | [^Fd][Ec][DB][CA] [B,G]3 G | [Bd][Ac][GB][FA] [Ac][GB][FA]G | %6
w: ’neath the leaves of shel- tering oak Slept|safe in down- y nest. Thro’|cease- less storm of sum- mer night Was|
w: wind plays with a brok- en nest— O|bird, who cares for thee? A|song of praise— a burst of joy— Brought|
w: sor- row is to Him un- known, Its|an- guish He doth share. The|love that marks the spar- row’s fall Shalt|
 [Fd][E^c][Fd][^F^d] [Ge]3 [Ge] | [^Ge][GB][Gc][Bd] [Ad][Ac][^DB][DA] | %8
w: heard no wild des- pair, For|great- er than the tem- pest’s wrath, The|
w: Je- sus’ words to me: “The|Fa- ther marks thy fall,” I cried, And|
w: for thy need pre- pare, For|great- er than thy life can tell, Thy|
 [EG][Ec]!fermata![Fd][Ec] [Ec]4 |:"^Refrain" e3 z d(3cBc(3dcA | G6 E2 [Gc]2 |1 %11
w: Fa- ther’s watch- ful care.|||
w: His love feed- eth thee.|O the won- der- ful, won- der- ful|love, That marks|
w: Fa- ther’s watch- ful care.|||
 [FB]3 [FB] [FA]2 [FB]2 | A2 G2- (3(GGA(3Bcd) :|2 [FB]3 [Fd] [FA]2 [FB]2 || c4- !fermata![Ec]2 |] %15
w: ||||
w: * the spar- row’s|fall; hears * * * * * *|my faint- est call.||
w: ||||
V:2
 x | x8 | x8 | x8 | x7 G | x7 G | x8 | x8 | x8 |: (3(GGG G2) E2 F2 x | E>E(3EEE x6 |1 x8 | %12
 (F>FE>E E2) x2 :|2 x8 || E>EF>A x2 |] %15
V:3
 z | z G,CG, z G,B,G, | z G,B,G, (z ^F,G,)C | z G,CG, z G,D^F, | z ^F,CF, (z D,G,)D, | %5
w: |~ ~ ~ ~ ~ ~|~ ~ ~ * * ~|~ ~ ~ ~ ~ ~|~ ~ ~ * * ~|
 G,,G,B,G, D,G,B,G, | G,,G,B,G, (C,G,C) z | E,,E,^G,E, [A,,A,]2 [^F,,^F,]2 | %8
w: * ~ ~ ~ ~ ~ ~ ~|~ ~ ~ ~ ~ * *|~ ~ ~ ~ ~ ~|
 [G,,G,]2 !fermata![G,B,]2 [C,G,C]4 |: (3[C,C][E,C][G,C] [C,C]2 [C,G,]2 [C,A,]2 x | %10
w: ~ ~ ~|~ ~ ~ ~ ~ ~|
 [C,C]>[C,C] (3[C,C][E,C][G,C] C2 [E,C]2 x2 |1 [G,D]3 [G,D] [G,D]2 [G,B,]2 | %12
w: ~ ~ ~ Won- der- ful love,|O the love, the|
 [C,C]>[C,C] [C,C]>[C,C] [C,C]2 z2 :|2 [G,D]3 [G,B,] [G,C]2 G,2 || %14
w: won- der- ful love, ~|~ ~ ~ ~|
 [C,G,]>[C,C] [C,A,]>[C,C] !fermata![C,G,]2 |] %15
w: marks the spar- row’s fall;|
V:4
 x | C,4 D,4 | G,,4 C,4 | C,4 D,4 | D,4 G,,4 | G,,4 D,4 | G,,4 C,4 | E,,4 x4 | x8 |: x9 | x10 |1 %11
 x8 | x8 :|2 x6 G,2 || x6 |] %15

